!!!COM: Martin, Frank
!!!OTL: [T554_Mai-w20p6m95-110]
**kern	**dynam	**kern	**dynam	**kern	**dynam	**kern	**dynam	**kern	**dynam	**kern	**dynam	**kern	**dynam	**kern	**dynam	**kern	**dynam	**kern	**dynam	**kern	**dynam
*grp:A	*grp:A	*grp:A	*grp:A	*grp:A	*grp:A	*grp:A	*grp:A	*grp:A	*grp:A	*grp:A	*grp:A	*grp:A	*grp:A	*grp:A	*grp:A	*grp:A	*grp:A	*grp:A	*grp:A	*grp:B	*grp:B
*part8	*part8	*part7	*	*part6	*part6	*part5	*	*part5	*	*part4	*	*part3	*	*part3	*	*part2	*	*part2	*part2	*part1	*
*staff11	*	*staff10	*	*staff9	*	*staff8	*	*staff7	*	*staff6	*	*staff5	*	*staff4	*	*staff3	*	*staff2	*	*staff1	*
*I"Contrabass Solo	*	*I"Violoncello Solo	*	*I"Viola	*	*I"Violin II	*	*	*	*I"Violin I	*	*I"Violin I (2 Soli)	*	*	*	*I"Piano	*	*	*	*I"Flute	*
*I'Cb. Solo	*	*I'Vc.	*	*I'Vla.	*	*I'Vln. II	*	*	*	*I'Vln. I	*	*I'Vln. I (2 Soli)	*	*	*	*I'Pno.	*	*	*	*I'Fl.	*
*clefF4	*	*clefF4	*	*clefC3	*	*clefG2	*	*clefG2	*	*clefG2	*	*clefG2	*	*clefG2	*	*clefF4	*	*clefF4	*	*clefG2	*
*ITrd7c12	*	*	*	*	*	*	*	*	*	*	*	*	*	*	*	*	*	*	*	*	*
*k[]	*	*k[]	*	*k[]	*	*k[]	*	*k[]	*	*k[]	*	*k[]	*	*k[]	*	*k[]	*	*k[]	*	*k[]	*
*C:	*	*C:	*	*C:	*	*C:	*	*C:	*	*C:	*	*C:	*	*C:	*	*C:	*	*C:	*	*C:	*
*M3/4	*	*M3/4	*	*M3/4	*	*M3/4	*	*M3/4	*	*M3/4	*	*M3/4	*	*M3/4	*	*M3/4	*	*M3/4	*	*M2/4	*
=95	=95	=95	=95	=95	=95	=95	=95	=95	=95	=95	=95	=95	=95	=95	=95	=95	=95	=95	=95	=95	=95
*Xtuplet	*	*	*	*	*	*Xtuplet	*	*Xtuplet	*	*Xtuplet	*	*	*	*	*	*	*	*	*	*Xtuplet	*
!	!	!	!	!	!	!	!	!	!	!	!	!	!	!LO:TX:t=[[quarter]=192]	!	!	!	!	!	!	!
!	!	!	!	!	!	!	!	!	!	!	!	!	!	!	!	!	!	!	!	!LO:TX:t=[[quarter]=192]	!
!	!	!	!	!LO:TX:a:t=vibr.	!	!	!	!	!	!	!	!	!	!	!	!	!	!	!	!	!
!	!	!	!LO:DY:ed=brack	!LO:TX:a:t=tutti unis.	!	!	!	!	!	!	!	!LO:TUP:b	!LO:DY:ed=brack	!LO:TUP:b	!LO:DY:ed=brack	!LO:TX:b:i:t=lié sans pédale	!	!	!	!	!
4%3r	.	2.FF#X_	pp	([2.fn	pp	4%3r	.	4%3r)	.	4%3r	.	(12G#XL	pp	(12eL	pp	(>[2.FFF#X	.	(4G#X 4e	pp	8%3r	.
.	.	.	.	.	.	.	.	.	.	.	.	12B	.	12d	.	.	.	.	.	.	.
.	.	.	.	.	.	.	.	.	.	.	.	12G#J)	.	12eJ)	.	.	.	.	.	.	.
!	!	!	!	!	!	!	!	!	!	!	!	!	!	!LO:TX:b:i:t=molto legg.	!	!	!	!	!	!	!
.	.	.	.	.	.	.	.	.	.	.	.	8B'	.	8d'	.	.	.	4B 4d	.	.	.
!	!	!	!	!	!	!	!	!	!	!	!	!	!	!	!	!	!	!	!	!LO:TX:b:i:t=dolce cantabile	!LO:DY:ed=brack
.	.	.	.	.	.	.	.	.	.	.	.	8r	.	8r	.	.	.	.	.	([8%3b-X~	mp
!	!	!	!	!	!	!	!	!	!	!	!	!LO:TUP:b	!	!LO:TUP:b	!	!	!	!	!	!	!
.	.	.	.	.	.	.	.	.	.	.	.	(12G#L	.	(12eL	.	.	.	4G# 4e	.	.	.
.	.	.	.	.	.	.	.	.	.	.	.	12B	.	12d	.	.	.	.	.	.	.
.	.	.	.	.	.	.	.	.	.	.	.	12G#J)	.	12eJ)	.	.	.	.	.	.	.
=96	=96	=96	=96	=96	=96	=96	=96	=96	=96	=96	=96	=96	=96	=96	=96	=96	=96	=96	=96	=96	=96
*	*	*	*	*	*	*	*	*	*	*	*	*Xtuplet	*	*Xtuplet	*	*	*	*	*	*	*
4%3r	.	2.FF#_	.	2.f_	.	4%3r	.	4%3r	.	4%3r	.	(12BL	.	(12dL	.	2.FFF#]	.	4B 4d	.	8%3b-]	.
.	.	.	.	.	.	.	.	.	.	.	.	12G#X	.	12e	.	.	.	.	.	.	.
.	.	.	.	.	.	.	.	.	.	.	.	12BJ)	.	12dJ)	.	.	.	.	.	.	.
.	.	.	.	.	.	.	.	.	.	.	.	8G#'	.	8e'	.	.	.	4G#X 4e	.	.	.
.	.	.	.	.	.	.	.	.	.	.	.	8r	.	8r	.	.	.	.	.	8%3b-X~	.
.	.	.	.	.	.	.	.	.	.	.	.	(12BL	.	(12dL	.	.	.	4B 4d	.	.	.
.	.	.	.	.	.	.	.	.	.	.	.	12G#	.	12e	.	.	.	.	.	.	.
.	.	.	.	.	.	.	.	.	.	.	.	12BJ)	.	12dJ)	.	.	.	.	.	.	.
=97	=97	=97	=97	=97	=97	=97	=97	=97	=97	=97	=97	=97	=97	=97	=97	=97	=97	=97	=97	=97	=97
4%3r	.	2.FF#_	.	2.f]	.	4%3r	.	4%3r	.	4%3r	.	8G#X'	.	8e'	.	2.FF#X	.	4G#X 4e	.	8%3dd-X~	.
.	.	.	.	.	.	.	.	.	.	.	.	8r	.	8r	.	.	.	.	.	.	.
.	.	.	.	.	.	.	.	.	.	.	.	(12BL	.	(12dL	.	.	.	4B 4d	.	.	.
.	.	.	.	.	.	.	.	.	.	.	.	12G#	.	12e	.	.	.	.	.	.	.
.	.	.	.	.	.	.	.	.	.	.	.	.	.	.	.	.	.	.	.	8%3b-X~	.
.	.	.	.	.	.	.	.	.	.	.	.	12BJ)	.	12dJ)	.	.	.	.	.	.	.
.	.	.	.	.	.	.	.	.	.	.	.	(12G#L	.	(12eL	.	.	.	4G# 4e	.	.	.
.	.	.	.	.	.	.	.	.	.	.	.	12B	.	12d	.	.	.	.	.	.	.
.	.	.	.	.	.	.	.	.	.	.	.	12G#J)	.	12eJ)	.	.	.	.	.	.	.
=98	=98	=98	=98	=98	=98	=98	=98	=98	=98	=98	=98	=98	=98	=98	=98	=98	=98	=98	=98	=98	=98
4%3r	.	2.FF#_	.	[2.e	.	4%3r	.	4%3r	.	4%3r	.	(12GnL	.	(12dL	.	[2.FFF#X	.	4Gn 4d	.	[4%3an~	.
.	.	.	.	.	.	.	.	.	.	.	.	12B-X	.	12c#X	.	.	.	.	.	.	.
.	.	.	.	.	.	.	.	.	.	.	.	12GJ)	.	12dJ)	.	.	.	.	.	.	.
.	.	.	.	.	.	.	.	.	.	.	.	8B-'	.	8c#'	.	.	.	4B-X 4c#X	.	.	.
.	.	.	.	.	.	.	.	.	.	.	.	8r	.	8r	.	.	.	.	.	.	.
.	.	.	.	.	.	.	.	.	.	.	.	(12GL	.	(12dL	.	.	.	4G 4d	.	.	.
.	.	.	.	.	.	.	.	.	.	.	.	12B-	.	12c#	.	.	.	.	.	.	.
.	.	.	.	.	.	.	.	.	.	.	.	12GJ)	.	12dJ)	.	.	.	.	.	.	.
=99	=99	=99	=99	=99	=99	=99	=99	=99	=99	=99	=99	=99	=99	=99	=99	=99	=99	=99	=99	=99	=99
4%3r	.	2.FF#_	.	2.e_	.	4%3r	.	4%3r	.	4%3r	.	(12B-XL	.	(12c#XL	.	2.FFF#]	.	4B-X 4c#X	.	4%3a])	.
.	.	.	.	.	.	.	.	.	.	.	.	12G	.	12d	.	.	.	.	.	.	.
.	.	.	.	.	.	.	.	.	.	.	.	12B-J)	.	12c#J)	.	.	.	.	.	.	.
.	.	.	.	.	.	.	.	.	.	.	.	8G'	.	8d'	.	.	.	4G 4d	.	.	.
.	.	.	.	.	.	.	.	.	.	.	.	8r	.	8r	.	.	.	.	.	.	.
.	.	.	.	.	.	.	.	.	.	.	.	(12B-L	.	(12c#L	.	.	.	4B- 4c#	.	.	.
.	.	.	.	.	.	.	.	.	.	.	.	12G	.	12d	.	.	.	.	.	.	.
.	.	.	.	.	.	.	.	.	.	.	.	12B-J)	.	12c#J)	.	.	.	.	.	.	.
!!pagebreak:original
=100	=100	=100	=100	=100	=100	=100	=100	=100	=100	=100	=100	=100	=100	=100	=100	=100	=100	=100	=100	=100	=100
4%3r	.	2.FF#X_Z	.	2.e_	.	4%3r	.	4%3r	.	4%3r	.	8G'	.	8d'	.	2.FF#X	.	4G 4d	.	8%3r	.
.	.	.	.	.	.	.	.	.	.	.	.	8r	.	8r	.	.	.	.	.	.	.
.	.	.	.	.	.	.	.	.	.	.	.	(12B-XL	.	(12c#XL	.	.	.	4B-X 4c#X	.	.	.
.	.	.	.	.	.	.	.	.	.	.	.	12G	.	12d	.	.	.	.	.	.	.
.	.	.	.	.	.	.	.	.	.	.	.	.	.	.	.	.	.	.	.	(>[8%3f#X	.
.	.	.	.	.	.	.	.	.	.	.	.	12B-J)	.	12c#J)	.	.	.	.	.	.	.
.	.	.	.	.	.	.	.	.	.	.	.	(12GL	.	(12dL	.	.	.	4G 4d	.	.	.
.	.	.	.	.	.	.	.	.	.	.	.	12B-	.	12c#	.	.	.	.	.	.	.
.	.	.	.	.	.	.	.	.	.	.	.	12GJ)	.	12dJ)	.	.	.	.	.	.	.
!!LO:REH:t=9
=101	=101	=101	=101	=101	=101	=101	=101	=101	=101	=101	=101	=101	=101	=101	=101	=101	=101	=101	=101	=101	=101
4%3r	.	2.FF#_	.	2.e])	.	4%3r	.	4%3r	.	4%3r	.	(12B-XL	.	(12c#XL	.	[2.FFF#X	.	4B-X 4c#X	.	8%3.f#]	.
.	.	.	.	.	.	.	.	.	.	.	.	12G	.	12d	.	.	.	.	.	.	.
.	.	.	.	.	.	.	.	.	.	.	.	12B-J)	.	12c#J)	.	.	.	.	.	.	.
.	.	.	.	.	.	.	.	.	.	.	.	8G'	.	8d'	.	.	.	4G 4d	.	.	.
.	.	.	.	.	.	.	.	.	.	.	.	8r	.	8r	.	.	.	.	.	.	.
.	.	.	.	.	.	.	.	.	.	.	.	(12B-L	.	(12c#L	.	.	.	4B- 4c#	.	.	.
.	.	.	.	.	.	.	.	.	.	.	.	.	.	.	.	.	.	.	.	16%3g)	.
.	.	.	.	.	.	.	.	.	.	.	.	12G	.	12d	.	.	.	.	.	.	.
.	.	.	.	.	.	.	.	.	.	.	.	12B-J)	.	12c#J)	.	.	.	.	.	.	.
=102	=102	=102	=102	=102	=102	=102	=102	=102	=102	=102	=102	=102	=102	=102	=102	=102	=102	=102	=102	=102	=102
4%3r	.	2.FF#_	.	(2.f	.	4%3r	.	4%3r	.	4%3r	.	(12G#XL	.	(12eL	.	2.FFF#]	.	4G#X 4e	.	(16%3aL	.
.	.	.	.	.	.	.	.	.	.	.	.	12Bn	.	12d	.	.	.	.	.	.	.
.	.	.	.	.	.	.	.	.	.	.	.	12G#J)	.	12eJ)	.	.	.	.	.	.	.
.	.	.	.	.	.	.	.	.	.	.	.	.	.	.	.	.	.	.	.	16%3b	.
.	.	.	.	.	.	.	.	.	.	.	.	8B'	.	8d'	.	.	.	4Bn 4d	.	.	.
.	.	.	.	.	.	.	.	.	.	.	.	8r	.	8r	.	.	.	.	.	16%3cc	.
.	.	.	.	.	.	.	.	.	.	.	.	(12G#L	.	(12eL	.	.	.	4G# 4e	.	.	.
.	.	.	.	.	.	.	.	.	.	.	.	.	.	.	.	.	.	.	.	16%3ddJ)	.
.	.	.	.	.	.	.	.	.	.	.	.	12B	.	12d	.	.	.	.	.	.	.
.	.	.	.	.	.	.	.	.	.	.	.	12G#J)	.	12eJ)	.	.	.	.	.	.	.
*	*	*	*	*	*	*	*	*	*	*	*	*	*	*	*	*	*	*clefG2	*	*	*
=103	=103	=103	=103	=103	=103	=103	=103	=103	=103	=103	=103	=103	=103	=103	=103	=103	=103	=103	=103	=103	=103
4%3r	.	2.FF#_	.	[2.g	.	4%3r	.	4%3r	.	4%3r	.	8B-X'	.	8f'	.	2.FF#X	.	4B-X 4f	.	(8%3ee-X~	.
.	.	.	.	.	.	.	.	.	.	.	.	8r	.	8r	.	.	.	.	.	.	.
.	.	.	.	.	.	.	.	.	.	.	.	(12d-XL	.	(12eL	.	.	.	4d-X 4e	.	.	.
.	.	.	.	.	.	.	.	.	.	.	.	12B-	.	12f	.	.	.	.	.	.	.
.	.	.	.	.	.	.	.	.	.	.	.	.	.	.	.	.	.	.	.	8%3dd-X~	.
.	.	.	.	.	.	.	.	.	.	.	.	12d-J)	.	12eJ)	.	.	.	.	.	.	.
.	.	.	.	.	.	.	.	.	.	.	.	(12B-L	.	(12fL	.	.	.	4B- 4f	.	.	.
.	.	.	.	.	.	.	.	.	.	.	.	12d-	.	12e	.	.	.	.	.	.	.
.	.	.	.	.	.	.	.	.	.	.	.	12B-J)	.	12fJ)	.	.	.	.	.	.	.
=104	=104	=104	=104	=104	=104	=104	=104	=104	=104	=104	=104	=104	=104	=104	=104	=104	=104	=104	=104	=104	=104
4%3r	.	2.FF#_	.	2.g]	.	4%3r	.	4%3r	.	4%3r	.	(12d-XL	.	(12eL	.	[2.FFF#X)	.	4d-X 4e	.	8%3cc~	.
.	.	.	.	.	.	.	.	.	.	.	.	12B-X	.	12f	.	.	.	.	.	.	.
.	.	.	.	.	.	.	.	.	.	.	.	12d-J)	.	12eJ)	.	.	.	.	.	.	.
.	.	.	.	.	.	.	.	.	.	.	.	8B-'	.	8f'	.	.	.	4B-X 4f	.	.	.
.	.	.	.	.	.	.	.	.	.	.	.	8r	.	8r	.	.	.	.	.	8%3b-X~)	.
.	.	.	.	.	.	.	.	.	.	.	.	(12d-L	.	(12eL	.	.	.	4d- 4e	.	.	.
.	.	.	.	.	.	.	.	.	.	.	.	12B-	.	12f	.	.	.	.	.	.	.
.	.	.	.	.	.	.	.	.	.	.	.	12d-J)	.	12eJ)	.	.	.	.	.	.	.
!!linebreak:original
=105	=105	=105	=105	=105	=105	=105	=105	=105	=105	=105	=105	=105	=105	=105	=105	=105	=105	=105	=105	=105	=105
4%3r	.	2.FF#_	.	[2.a-X	.	4%3r	.	4%3r	.	4%3r	.	(12BnL	.	(12gL	.	2.FFF#]	.	4Bn 4g	.	(8%3een~	.
.	.	.	.	.	.	.	.	.	.	.	.	12dn	.	12f	.	.	.	.	.	.	.
.	.	.	.	.	.	.	.	.	.	.	.	12BJ)	.	12gJ)	.	.	.	.	.	.	.
.	.	.	.	.	.	.	.	.	.	.	.	8d'	.	8f'	.	.	.	4d 4f	.	.	.
.	.	.	.	.	.	.	.	.	.	.	.	8r	.	8r	.	.	.	.	.	8%3ddn~	.
.	.	.	.	.	.	.	.	.	.	.	.	(12BL	.	(12gL	.	.	.	4B 4g	.	.	.
.	.	.	.	.	.	.	.	.	.	.	.	12d	.	12f	.	.	.	.	.	.	.
.	.	.	.	.	.	.	.	.	.	.	.	12BJ)	.	12gJ)	.	.	.	.	.	.	.
=106	=106	=106	=106	=106	=106	=106	=106	=106	=106	=106	=106	=106	=106	=106	=106	=106	=106	=106	=106	=106	=106
4%3r	.	2.FF#XZ]	.	2.a-XZ])	.	4%3r	.	4%3r	.	4%3r	.	8d'	.	8f'	.	2.FF#X	.	4d 4f	.	8%3cc#X~	.
.	.	.	.	.	.	.	.	.	.	.	.	8r	.	8r	.	.	.	.	.	.	.
.	.	.	.	.	.	.	.	.	.	.	.	(12BL	.	(12gL	.	.	.	4B 4g	.	.	.
.	.	.	.	.	.	.	.	.	.	.	.	12d	.	12f	.	.	.	.	.	.	.
.	.	.	.	.	.	.	.	.	.	.	.	.	.	.	.	.	.	.	.	8%3bn~)	.
.	.	.	.	.	.	.	.	.	.	.	.	12BJ)	.	12gJ)	.	.	.	.	.	.	.
.	.	.	.	.	.	.	.	.	.	.	.	(12dL	.	(12fL	.	.	.	4d 4f	.	.	.
.	.	.	.	.	.	.	.	.	.	.	.	12B	.	12g	.	.	.	.	.	.	.
.	.	.	.	.	.	.	.	.	.	.	.	12dJ)	.	12fJ)	.	.	.	.	.	.	.
=107	=107	=107	=107	=107	=107	=107	=107	=107	=107	=107	=107	=107	=107	=107	=107	=107	=107	=107	=107	=107	=107
!LO:TX:a:t=vibr.	!	!	!	!	!	!	!	!	!	!	!	!	!	!	!	!	!	!	!	!	!
!LO:TX:a:t=pizz.	!	!	!	!	!	!	!	!	!	!	!	!	!	!	!	!	!	!	!	!	!
2BBB	p	[2.BBn	.	[2.an	.	4%3r	.	4%3r	.	4%3r	.	(12B#XL	.	(12g#XL	.	[2.BBBn	.	4B#X 4g#X	.	(16%3ff~L	.
.	.	.	.	.	.	.	.	.	.	.	.	12d#X	.	12f#X	.	.	.	.	.	.	.
.	.	.	.	.	.	.	.	.	.	.	.	12B#J)	.	12g#J)	.	.	.	.	.	.	.
.	.	.	.	.	.	.	.	.	.	.	.	.	.	.	.	.	.	.	.	16%3dd~	.
.	.	.	.	.	.	.	.	.	.	.	.	8d#'	.	8f#'	.	.	.	4d#X 4f#X	.	.	.
.	.	.	.	.	.	.	.	.	.	.	.	8r	.	8r	.	.	.	.	.	16%3ff~	.
4r	.	.	.	.	.	.	.	.	.	.	.	(12B#L	.	(12g#L	.	.	.	4B# 4g#	.	.	.
.	.	.	.	.	.	.	.	.	.	.	.	.	.	.	.	.	.	.	.	[16%3dd~J	.
.	.	.	.	.	.	.	.	.	.	.	.	12d#	.	12f#	.	.	.	.	.	.	.
.	.	.	.	.	.	.	.	.	.	.	.	12B#J)	.	12g#J)	.	.	.	.	.	.	.
=108	=108	=108	=108	=108	=108	=108	=108	=108	=108	=108	=108	=108	=108	=108	=108	=108	=108	=108	=108	=108	=108
4%3r	.	2.BB_	.	2.a_	.	4%3r	.	4%3r	.	4%3r	.	(12d#XL	.	(12f#XL	.	2.BBB_	.	4d#X 4f#X	.	4%3dd_	.
.	.	.	.	.	.	.	.	.	.	.	.	12B#X	.	12g#X	.	.	.	.	.	.	.
.	.	.	.	.	.	.	.	.	.	.	.	12d#J)	.	12f#J)	.	.	.	.	.	.	.
.	.	.	.	.	.	.	.	.	.	.	.	8B#'	.	8g#'	.	.	.	4B#X 4g#X	.	.	.
.	.	.	.	.	.	.	.	.	.	.	.	8r	.	8r	.	.	.	.	.	.	.
.	.	.	.	.	.	.	.	.	.	.	.	(12d#L	.	(12f#L	.	.	.	4d# 4f#	.	.	.
.	.	.	.	.	.	.	.	.	.	.	.	12B#	.	12g#	.	.	.	.	.	.	.
.	.	.	.	.	.	.	.	.	.	.	.	12d#J)	.	12f#J)	.	.	.	.	.	.	.
=109	=109	=109	=109	=109	=109	=109	=109	=109	=109	=109	=109	=109	=109	=109	=109	=109	=109	=109	=109	=109	=109
4%3r	.	2BB]	.	2.a_	.	4%3r	.	4%3r	.	4%3r	.	8B#X'	.	8g#X'	.	2BBB]	.	4B#X 4g#X	.	4%3dd])	.
.	.	.	.	.	.	.	.	.	.	.	.	8r	.	8r	.	.	.	.	.	.	.
.	.	.	.	.	.	.	.	.	.	.	.	(12d#XL	.	(12f#XL	.	.	.	4d#X 4f#X	.	.	.
.	.	.	.	.	.	.	.	.	.	.	.	12B#	.	12g#	.	.	.	.	.	.	.
.	.	.	.	.	.	.	.	.	.	.	.	12d#J)	.	12f#J)	.	.	.	.	.	.	.
.	.	4r	.	.	.	.	.	.	.	.	.	(12B#L	.	(12g#L	.	4r	.	4B# 4g#)	.	.	.
.	.	.	.	.	.	.	.	.	.	.	.	12d#	.	12f#	.	.	.	.	.	.	.
.	.	.	.	.	.	.	.	.	.	.	.	12B#J)	.	12g#J)	.	.	.	.	.	.	.
!!pagebreak:original
=110	=110	=110	=110	=110	=110	=110	=110	=110	=110	=110	=110	=110	=110	=110	=110	=110	=110	=110	=110	=110	=110
!	!	!LO:TX:a:t=pizz.	!	!	!	!	!	!	!	!	!	!	!	!	!	!	!	!	!	!	!
!LO:TX:a:t=arco	!	!LO:TX:b:i:t=dolce. vibr.	!	!	!	!	!	!LO:TX:b:i:t=dolce. vibr.	!	!	!	!	!	!	!	!	!	!LO:TUP:b	!	!	!
!LO:TX:b:i:t=marcato cantabile	!	!LO:TX:a:t=tutti	!	!	!	!	!	!LO:TX:a:t=pizz.	!	!LO:TX:b:i:t=dolciss. vibr.	!	!	!	!	!	!LO:TX:b:i:t=legg. senza ped.	!	!	!	!	!
[2.FFF	.	2FFn	.	8a]	.	4r	.	2d#X 2f#X	.	([2.a	.	8d#X'	.	8f#X'	.	4%3r	.	\(>(12f#XL	.	8%3r	.
.	.	.	.	.	.	.	.	.	.	.	.	.	.	.	.	.	.	12d#X	.	.	.
.	.	.	.	8r	.	.	.	.	.	.	.	8r	.	8r	.	.	.	.	.	.	.
.	.	.	.	.	.	.	.	.	.	.	.	.	.	.	.	.	.	12f#J	.	.	.
!	!	!	!	!	!	!LO:TX:b:i:t=dolce. vibr.	!	!	!	!	!	!	!	!	!	!	!	!	!	!	!
!	!	!	!	!	!	!LO:TX:a:t=pizz.	!	!	!	!	!	!	!	!	!	!	!	!LO:TX:a:t=M.D.	!	!	!
.	.	.	.	4r	.	2B#X 2g#X	.	.	.	.	.	4r	.	4r	.	.	.	8B#X) 8g#X)	pp	.	.
.	.	.	.	.	.	.	.	.	.	.	.	.	.	.	.	.	.	8r	.	[8%3ddd~	.
!	!	!	!	!	!	!	!	!	!	!	!	!	!	!	!	!	!	!LO:TUP:b	!	!	!
.	.	4r	.	4r	.	.	.	[4d# [4f#	.	.	.	4r	.	4r	.	.	.	\(>(12f#L	.	.	.
.	.	.	.	.	.	.	.	.	.	.	.	.	.	.	.	.	.	12d#	.	.	.
.	.	.	.	.	.	.	.	.	.	.	.	.	.	.	.	.	.	12f#J	.	.	.
=	=	=	=	=	=	=	=	=	=	=	=	=	=	=	=	=	=	=	=	=	=
*-	*-	*-	*-	*-	*-	*-	*-	*-	*-	*-	*-	*-	*-	*-	*-	*-	*-	*-	*-	*-	*-
!!!system-decoration: [(s1[({(s2,s3)})][([([({(s4,s5)})]s6)][({(s7,s8)})]s9,s10,s11)])]
!!!RDF**kern: > = above
!!!RDF**kern: < = below
!!!RDF**kern: Z = editorial accidental, parentheses
!!!EED: Daniel Wright
!!!EEV: 2022/1/27
